X:1
T:Title
%%score { 1 | 2 }
L:1/8
Q:1/4=100
M:4/4
K:D
V:1 treble nm="Grand Piano"
V:2 bass 
V:1
 [FA]>[GB] [FA]>[GB] [FA]2 F>D | [CE]>[EG] [DF]>[CE] D4 | [FA]>[GB] [FA]>[GB] [FA]>[FA] F2 | %3
w: W.~J.~C.~Thiel * * * * * *|||
 E>A c>B [CA]4 | A>B c>d e2 c2 | [Fd]>[Fe] [Gd]>[DGB] [DFA]4 | %6
w: |||
 [DGB]>[DBd] [DAc]>[DGB] [DFA]>[DFA] [A,DF]2 | [A,CA]>[A,EG] [A,DF]>[K:bass][G,CE] [F,D]4 |] %8
w: ||
V:2
 [D,D]>[D,D] [D,D]>[D,D] [D,D]2 [D,A,D]>[D,F,] | [A,,A,]>[A,,A,] [A,,A,]>[A,,G,] [D,F,]4 | %2
 [D,D]>[D,D] [D,D]>[D,D] [D,D]>[D,D] [D,A,D]2 | [E,A,C]>[E,A,C] [E,^G,E]>[E,G,D] [A,,A,]4 | %4
 [A,C]>[A,D] [A,E]>[A,F] [A,CG]2 [A,G]2 | [D,A,]>[D,A,] [G,B,]>G, D,4 | G,>G, G,>G, D,>D, D,2 | %7
 A,,>A,, A,,>A,, D,4 |] %8

